X: 36336
T: Sean Bui
R: jig
M: 6/8
K: Dmajor
B|:AFD D.F/.G/A|D.F/.G/A AdB|AFD D.F/.G/A|BBA BdB|
AFD DD/D/D|DD/D/D ABc|def .g/.f/ef|fdB B2d:|
A.dd f.dd|e.dd f.dd|A.B/.c/d f.dd|edB B2d|Add .g/.f/ee|
.g/.f/ee f.dd|gfe fdB|1 A.F/.G/A B2d:|2 A.F/.G/A B3||

